public/images/blue-olive.svg

<svg height="59" viewBox="0 0 317 59" width="317" xmlns="http://www.w3.org/2000/svg"><path d="m3.422 20.512h-2.192c-.653 0-1.182-.529-1.182-1.182s.529-1.182 1.182-1.182h2.192c.653 0 1.182.529 1.182 1.182s-.529 1.182-1.182 1.182" fill="none"/><g fill="#ec5033"><path d="m3.422 20.512h-2.192c-.653 0-1.182-.529-1.182-1.182s.529-1.182 1.182-1.182h2.192c.653 0 1.182.529 1.182 1.182s-.529 1.182-1.182 1.182"/><path d="m37.599 20.512h-2.192c-.653 0-1.183-.529-1.183-1.183 0-.653.53-1.182 1.183-1.182h2.193c.64.019 1.149.543 1.149 1.182 0 .64-.509 1.164-1.149 1.183"/><path d="m35.231 18.183v9.105c0 8.674-7.058 15.727-15.731 15.727-8.674 0-15.732-7.053-15.732-15.727v-9.105h-2.648v9.105c0 10.134 8.245 18.377 18.38 18.377 10.134 0 18.38-8.242 18.38-18.377v-9.105z"/><path d="m17.091 52.62h4.817v-7.115h-4.817z"/><path d="m12.16 55.758c0-.984.797-1.78 1.78-1.78h11.12c.983 0 1.78.797 1.78 1.78s-.797 1.78-1.78 1.78h-11.12c-.472 0-.925-.188-1.259-.521-.333-.334-.521-.787-.521-1.259"/><path d="m32 18.554v-3.351h-6.342c-.806 0-1.513-.613-1.534-1.408-.008-.393.144-.772.42-1.051.276-.28.653-.436 1.046-.433h6.41c-.003-6.8-5.599-12.311-12.5-12.311s-12.497 5.512-12.5 12.311h6.118c.803 0 1.504.61 1.528 1.402.009.394-.142.775-.418 1.056-.277.28-.655.437-1.049.434h-6.179v3.351h6.118c.803 0 1.504.61 1.528 1.402.009.394-.142.775-.418 1.056-.277.28-.655.437-1.049.434h-6.179v3.35h6.118c.803 0 1.504.61 1.528 1.402.009.394-.142.775-.418 1.056-.277.28-.655.437-1.049.434h-6.179c.003 6.801 5.599 12.312 12.5 12.312s12.497-5.512 12.5-12.311h-6.41c-.81 0-1.466-.648-1.466-1.446 0-.799.657-1.446 1.467-1.446h6.409v-3.352h-6.342c-.806 0-1.513-.612-1.534-1.407-.008-.393.144-.772.42-1.051.276-.28.653-.436 1.046-.433z"/></g><text fill="#fff" font-family="Inter-Bold, Inter" font-size="49.857" transform="translate(40 -9)" x="1" y="48">MAPPING</text><text fill="#fff" font-family="Inter-Bold, Inter" font-size="19" transform="translate(43 37)" x="1" y="18">the doctrine of discovery</text></svg>

<svg xmlns="http://www.w3.org/2000/svg" xmlns:xlink="http://www.w3.org/1999/xlink" width="317" height="59" version="1.1" viewBox="0 0 317 59"><g id="group"><path id="Path" fill="none" stroke="none" d="M3.422 20.512 L1.23 20.512 C0.577 20.512 0.048 19.983 0.048 19.33 0.048 18.677 0.577 18.148 1.23 18.148 L3.422 18.148 C4.075 18.148 4.604 18.677 4.604 19.33 4.604 19.983 4.075 20.512 3.422 20.512"/><path id="Path-1" fill="#ec5033" fill-opacity="1" stroke="none" d="M3.422 20.512 L1.23 20.512 C0.577 20.512 0.048 19.983 0.048 19.33 0.048 18.677 0.577 18.148 1.23 18.148 L3.422 18.148 C4.075 18.148 4.604 18.677 4.604 19.33 4.604 19.983 4.075 20.512 3.422 20.512"/><g id="group-1"><path id="Path-2" fill="#ec5033" fill-opacity="1" stroke="none" d="M37.599 20.512 L35.407 20.512 C34.754 20.512 34.224 19.983 34.224 19.329 34.224 18.676 34.754 18.147 35.407 18.147 L37.6 18.147 C38.24 18.166 38.749 18.69 38.749 19.329 38.749 19.969 38.24 20.493 37.6 20.512"/></g><g id="group-2"><path id="Path-3" fill="#ec5033" fill-opacity="1" stroke="none" d="M35.231 18.183 L35.231 27.288 C35.231 35.962 28.173 43.015 19.5 43.015 10.826 43.015 3.768 35.962 3.768 27.288 L3.768 18.183 1.12 18.183 1.12 27.288 C1.12 37.422 9.365 45.665 19.5 45.665 29.634 45.665 37.88 37.423 37.88 27.288 L37.88 18.183 Z"/></g><path id="Path-4" fill="#ec5033" fill-opacity="1" stroke="none" d="M17.091 52.62 L21.908 52.62 21.908 45.505 17.091 45.505 Z"/><g id="group-3"><path id="Path-5" fill="#ec5033" fill-opacity="1" stroke="none" d="M12.16 55.758 C12.16 54.774 12.957 53.978 13.94 53.978 L25.06 53.978 C26.043 53.978 26.84 54.775 26.84 55.758 26.84 56.741 26.043 57.538 25.06 57.538 L13.94 57.538 C13.468 57.538 13.015 57.35 12.681 57.017 12.348 56.683 12.16 56.23 12.16 55.758"/></g><path id="g" fill="#ec5033" fill-opacity="1" stroke="none" d="M32 18.554 L32 15.203 25.658 15.203 C24.852 15.203 24.145 14.59 24.124 13.795 24.116 13.402 24.268 13.023 24.544 12.744 24.82 12.464 25.197 12.308 25.59 12.311 L32 12.311 C31.997 5.511 26.401 0 19.5 0 12.599 0 7.003 5.512 7 12.311 L13.118 12.311 C13.921 12.311 14.622 12.921 14.646 13.713 14.655 14.107 14.504 14.488 14.228 14.769 13.951 15.049 13.573 15.206 13.179 15.203 L7 15.203 7 18.554 13.118 18.554 C13.921 18.554 14.622 19.164 14.646 19.956 14.655 20.35 14.504 20.731 14.228 21.012 13.951 21.292 13.573 21.449 13.179 21.446 L7 21.446 7 24.796 13.118 24.796 C13.921 24.796 14.622 25.406 14.646 26.198 14.655 26.592 14.504 26.973 14.228 27.254 13.951 27.534 13.573 27.691 13.179 27.688 L7 27.688 C7.003 34.489 12.599 40 19.5 40 26.401 40 31.997 34.488 32 27.689 L25.59 27.689 C24.78 27.689 24.124 27.041 24.124 26.243 24.124 25.444 24.781 24.797 25.591 24.797 L32 24.797 32 21.445 25.658 21.445 C24.852 21.445 24.145 20.833 24.124 20.038 24.116 19.645 24.268 19.266 24.544 18.987 24.82 18.707 25.197 18.551 25.59 18.554 Z"/></g><defs><text id="string" x="1" y="48" font-family="Inter-Bold, Inter" font-size="49.857" text-decoration="none" transform="matrix(1.0 0.0 0.0 1.0 40.0 -9.0)">MAPPING</text></defs><use id="MAPPING" fill="#fff" fill-opacity="1" stroke="none" xlink:href="#string"/><defs><text id="string-1" x="1" y="18" font-family="Inter-Bold, Inter" font-size="19" text-decoration="none" transform="matrix(1.0 0.0 0.0 1.0 43.0 37.0)">the doctrine of discovery</text></defs><use id="the-doctrine-of-discovery" fill="#fff" fill-opacity="1" stroke="none" xlink:href="#string-1"/></svg>
